X: 229
T: Jenny's Chicken
R:reel
M:4/4
L:1/8
K:A
"Bm"~f3g "(Fism)"fece|"(bm)"fefa "A"eAce|"Bm"~f3g "(Fism)"fece|"D"fgaf "A"eAce:|
"Bm"fBBA B2ce|fB~B2 "A"eAce|"Bm"fBBA B2ce|1"D"fgaf "A"eAce:|2"D"fgaf "A"eAcA|
"Bm"~B2bB aBgB|B2af "A"eAcA|"Bm"~B2bB aBgB|1"D"fgaf "A"eAcA:|2"D"fgaf "A"eAce||


